X:1
T: Lady Shaftsbury
C:
R:Reel
Q: 232
K:G
M:4/4
L:1/8
|:B|G2 D2 B,2 D2|G3A B2 e2|d2 B2 A3G|F2 A2 A2 BA|
G2 D2 B,2 D2|G3A B2 e2|d2 B2 A3B|G6 d2:|
|:g2 f2 e2 d2|g4 G3e|d2 B2 A3G|F2 A2 A2 d2|
|1g2 f2 e2 d2|g4 G3e|d2 B2 A3B|G6 d2:|2d3e d2 B2|A2 G2 A2 B2|GA BA G2 E2|G6||
